docs/.gitbook/assets/icon-chess-piece-16@dark.svg

<svg width="32" height="32" viewBox="0 0 16 16" fill="none" xmlns="http://www.w3.org/2000/svg">
<rect x="0" y="0" width="16" height="16" fill="#181c1f"/>
<path fill-rule="evenodd" clip-rule="evenodd" d="M8 2.5C7.17157 2.5 6.5 3.17157 6.5 4C6.5 4.50188 6.74648 4.9462 7.12501 5.21849C7.13147 5.22291 7.13785 5.22743 7.14415 5.23204C7.38687 5.40096 7.68187 5.5 8 5.5C8.31813 5.5 8.61313 5.40096 8.85585 5.23204C8.86215 5.22743 8.86853 5.22291 8.87499 5.21849C9.25351 4.9462 9.5 4.50188 9.5 4C9.5 3.17157 8.82843 2.5 8 2.5ZM10.167 6.07467C10.683 5.53586 11 4.80495 11 4C11 2.34315 9.65685 1 8 1C6.34315 1 5 2.34315 5 4C5 4.80495 5.31702 5.53586 5.83303 6.07467L4.1888 11.0573C2.93915 11.3164 2 12.4235 2 13.75V14.25C2 14.6642 2.33579 15 2.75 15H13.25C13.6642 15 14 14.6642 14 14.25V13.75C14 12.4235 13.0608 11.3164 11.8112 11.0573L10.167 6.07467ZM8.85225 6.87722C8.5821 6.95712 8.29606 7 8 7C7.70394 7 7.4179 6.95712 7.14775 6.87722L5.78727 11H10.2127L8.85225 6.87722ZM3.525 13.5H12.475C12.3592 12.9294 11.8547 12.5 11.25 12.5H4.75C4.14526 12.5 3.64082 12.9294 3.525 13.5Z" fill="#fff"/>
</svg>

<svg xmlns="http://www.w3.org/2000/svg" width="32" height="32" fill="none" viewBox="0 0 16 16"><path fill="#181c1f" d="M0 0h16v16H0z"/><path fill="#fff" fill-rule="evenodd" d="M8 2.5a1.5 1.5 0 1 0 0 3 1.5 1.5 0 0 0 0-3m2.167 3.575a3 3 0 1 0-4.334 0l-1.644 4.982A2.75 2.75 0 0 0 2 13.75v.5c0 .414.336.75.75.75h10.5a.75.75 0 0 0 .75-.75v-.5c0-1.326-.94-2.434-2.189-2.693zm-1.315.802a3 3 0 0 1-1.704 0L5.788 11h4.425zM3.525 13.5h8.95c-.116-.57-.62-1-1.225-1h-6.5c-.605 0-1.11.43-1.225 1" clip-rule="evenodd"/></svg>
